X: 34300
T: Restless Boy, The
R: jig
M: 6/8
K: Gmajor
BGG Add|B/c/dB BAG|BGG ADD|GAG GED|
BGG AFF|BAG ABc|dge f2d|cAF G2z:|
GBd g2e|fed cAF|GBd g2g|f/g/af gzg|
f/g/af g2e|fed cAF|BBB c/B/AG|BdB cBA:|
GBB B2d|cAA AFD|GBB BAG|BdB cAF|
GBB B2d|cAA ABc|dge f2d|cAF G3:|

